icon-themes/breeze_svg/cmd/lc_sbanativesql.svg

<svg viewBox="0 0 24 24" xmlns="http://www.w3.org/2000/svg"><path d="m12 4c-3.8659932 0-7 .8954258-7 2v4 4c.0085.562558.49935.726059.875.9375 1.183837.624921 3.463316 1.0625 6.125 1.0625 1.709962 0 3.175339-.192348 4.34375-.46875.218149-.04393.399843-.07234.59375-.125.112763-.03384.207968-.0573.3125-.09375.09114-.02919.165308-.06196.25-.09375.177407-.070063.35202-.140635.5-.21875v3c0 .366759-1.204628.678619-3 .84375v.9375c2.351199-.320609 4-.987501 4-1.78125v-4-2-1-1-4c0-1.1045952-3.134007-2-7-2zm0 1c1.691372 0 3.204093.1002856 4.28125.28125.01764.00281.04506-.00285.0625 0 1.037509.1799964 1.65625.4483398 1.65625.71875s-.618741.5387536-1.65625.71875c-1.081496.1876276-2.617268.28125-4.34375.28125s-3.2622543-.0936224-4.34375-.28125c-1.0375091-.1799964-1.65625-.4483398-1.65625-.71875s.6187409-.5387536 1.65625-.71875c.5542035-.0904822 1.2359651-.1368972 1.96875-.1875.721066-.0506028 1.529314-.09375 2.375-.09375zm-6 2c.1165847.057.2404188.1028329.375.15625.043489.018456.07963.044582.125.0625.1464679.054828.304158.1059466.46875.15625.033424.010497.059579.020996.09375.03125.4002293.1181038.8230627.1938924 1.3125.28125 1.0347013.1798629 2.262129.3125 3.625.3125s2.590299-.1326371 3.625-.3125c.983393-.1755217 1.788481-.4007425 2.375-.6875v3c0 .270418-.618741.538755-1.65625.71875-1.081496.187626-2.617268.28125-4.34375.28125-.859417 0-1.6506-.041195-2.375-.09375-.698204-.048214-1.3375132-.102852-1.875-.1875-1.0680328-.181568-1.713503-.445023-1.75-.71875v-1zm-.125 3.9375c.018922.01.043021.02136.0625.03125.01914.01043.044149.02101.0625.03125.2732294.133586.6009138.26258.96875.375.033424.0105.059579.021.09375.03125.4002293.118104.8230627.193892 1.3125.28125 1.0347013.179863 2.262129.3125 3.625.3125 1.487267-.0102 2.822197-.176832 4.1875-.4375.107613-.02405.209962-.03673.3125-.0625.255667-.06213.498234-.11346.71875-.1875.0315-.01043.06298-.02064.09375-.03125.244237-.08566.462145-.180407.65625-.28125.0083-.004.02303.004.03125 0v1 2c0 .03176-.01409.06307-.03125.09375-.07133.100788-.253115.191537-.5.28125-.16459.05981-.365454.134295-.59375.1875-.299187.06608-.664812.135886-1.0625.1875-.07006.0091-.114692.02264-.1875.03125-.224661.0301-.474117.03779-.71875.0625-.299065.026443-.576068.0436-.90625.0625-.648442.042728-1.314168.09375-2 .09375-3.382744 0-6.125-.4477-6.125-1zm-1.15625 4.064453-.71875.71875 1.78125 1.78125-1.78125 1.78125.71875.71875 2.28125-2.28125.21875-.21875-.21875-.21875zm3.28125 3.998047v1h4v-1z" fill="#4d4d4d"/></svg>

<svg xmlns="http://www.w3.org/2000/svg" viewBox="0 0 24 24">
 <path 
     style="fill:#4d4d4d" 
     d="M 12 4 C 8.1340068 4 5 4.8954258 5 6 L 5 10 L 5 14 C 5.0085 14.562558 5.49935 14.726059 5.875 14.9375 C 7.058837 15.562421 9.338316 16 12 16 C 13.709962 16 15.175339 15.807652 16.34375 15.53125 C 16.561899 15.48732 16.743593 15.45891 16.9375 15.40625 C 17.050263 15.37241 17.145468 15.34895 17.25 15.3125 C 17.34114 15.28331 17.415308 15.25054 17.5 15.21875 C 17.677407 15.148687 17.85202 15.078115 18 15 L 18 18 C 18 18.366759 16.795372 18.678619 15 18.84375 L 15 19.78125 C 17.351199 19.460641 19 18.793749 19 18 L 19 14 L 19 12 L 19 11 L 19 10 L 19 6 C 19 4.8954048 15.865993 4 12 4 z M 12 5 C 13.691372 5 15.204093 5.1002856 16.28125 5.28125 C 16.29889 5.28406 16.32631 5.2784 16.34375 5.28125 C 17.381259 5.4612464 18 5.7295898 18 6 C 18 6.2704102 17.381259 6.5387536 16.34375 6.71875 C 15.262254 6.9063776 13.726482 7 12 7 C 10.273518 7 8.7377457 6.9063776 7.65625 6.71875 C 6.6187409 6.5387536 6 6.2704102 6 6 C 6 5.7295898 6.6187409 5.4612464 7.65625 5.28125 C 8.2104535 5.1907678 8.8922151 5.1443528 9.625 5.09375 C 10.346066 5.0431472 11.154314 5 12 5 z M 6 7 C 6.1165847 7.057 6.2404188 7.1028329 6.375 7.15625 C 6.418489 7.174706 6.45463 7.200832 6.5 7.21875 C 6.6464679 7.273578 6.804158 7.3246966 6.96875 7.375 C 7.002174 7.385497 7.028329 7.395996 7.0625 7.40625 C 7.4627293 7.5243538 7.8855627 7.6001424 8.375 7.6875 C 9.4097013 7.8673629 10.637129 8 12 8 C 13.362871 8 14.590299 7.8673629 15.625 7.6875 C 16.608393 7.5119783 17.413481 7.2867575 18 7 L 18 10 C 18 10.270418 17.381259 10.538755 16.34375 10.71875 C 15.262254 10.906376 13.726482 11 12 11 C 11.140583 11 10.3494 10.958805 9.625 10.90625 C 8.926796 10.858036 8.2874868 10.803398 7.75 10.71875 C 6.6819672 10.537182 6.036497 10.273727 6 10 L 6 9 L 6 7 z M 5.875 10.9375 C 5.893922 10.9475 5.918021 10.95886 5.9375 10.96875 C 5.95664 10.97918 5.981649 10.98976 6 11 C 6.2732294 11.133586 6.6009138 11.26258 6.96875 11.375 C 7.002174 11.3855 7.028329 11.396 7.0625 11.40625 C 7.4627293 11.524354 7.8855627 11.600142 8.375 11.6875 C 9.4097013 11.867363 10.637129 12 12 12 C 13.487267 11.9898 14.822197 11.823168 16.1875 11.5625 C 16.295113 11.53845 16.397462 11.52577 16.5 11.5 C 16.755667 11.43787 16.998234 11.38654 17.21875 11.3125 C 17.25025 11.30207 17.28173 11.29186 17.3125 11.28125 C 17.556737 11.19559 17.774645 11.100843 17.96875 11 C 17.97705 10.996 17.99178 11.004 18 11 L 18 12 L 18 14 C 18 14.03176 17.98591 14.06307 17.96875 14.09375 C 17.89742 14.194538 17.715635 14.285287 17.46875 14.375 C 17.30416 14.43481 17.103296 14.509295 16.875 14.5625 C 16.575813 14.62858 16.210188 14.698386 15.8125 14.75 C 15.74244 14.7591 15.697808 14.77264 15.625 14.78125 C 15.400339 14.81135 15.150883 14.81904 14.90625 14.84375 C 14.607185 14.870193 14.330182 14.88735 14 14.90625 C 13.351558 14.948978 12.685832 15 12 15 C 8.617256 15 5.875 14.5523 5.875 14 L 5.875 10.9375 z M 4.71875 15.001953 L 4 15.720703 L 5.78125 17.501953 L 4 19.283203 L 4.71875 20.001953 L 7 17.720703 L 7.21875 17.501953 L 7 17.283203 L 4.71875 15.001953 z M 8 19 L 8 20 L 12 20 L 12 19 L 8 19 z "
     />
 </svg>
